src/lib/packages/icons/src/assets/filled/dislike.svg

<svg width="24" height="24" viewBox="0 0 24 24" fill="none" xmlns="http://www.w3.org/2000/svg">
<path d="M21 4.5V11.5C21 12.328 20.329 13 19.5 13H17.8C17.634 13 17.5 12.866 17.5 12.7V3.29999C17.5 3.13399 17.634 3 17.8 3H19.5C20.329 3 21 3.672 21 4.5ZM15.701 3H8.10205C6.09205 3 5.66195 3.82999 5.25195 5.04999L3.25195 11.05C2.60195 12.99 3.09205 15 6.10205 15H10.0019V18.24C10.0019 19.24 10.502 20.18 11.342 20.73C11.612 20.91 11.922 21 12.222 21C12.852 21 13.462 20.62 13.702 19.97L15.9871 13.046C15.9971 13.016 16.0019 12.984 16.0019 12.952V3.29999C16.0009 3.13399 15.866 3 15.701 3Z" fill="currentColor"/>
</svg>

<svg xmlns="http://www.w3.org/2000/svg" width="24" height="24" fill="none"><path fill="currentColor" d="M21 4.5v7a1.5 1.5 0 0 1-1.5 1.5h-1.7a.3.3 0 0 1-.3-.3V3.3a.3.3 0 0 1 .3-.3h1.7A1.5 1.5 0 0 1 21 4.5ZM15.701 3H8.102c-2.01 0-2.44.83-2.85 2.05l-2 6c-.65 1.94-.16 3.95 2.85 3.95h3.9v3.24c0 1 .5 1.94 1.34 2.49a1.574 1.574 0 0 0 2.36-.76l2.285-6.924a.298.298 0 0 0 .015-.094V3.3A.302.302 0 0 0 15.7 3Z"/></svg>
